X:661
T:Reel 661
M:4/4
K:Dmaj
L:1/8
F|A3B AFdF|AFdF eEEG|F/2G/2F/2E/2FG Bdde|dABG FDD|A|dcdf afdf|gfed cdAc|dAdA FAdf|afeg fddf|afdf gfed|gefd edBc|dBAF AFAB|dFAG FDD|
